symbols/web/spatial_audio/materialsymbolsoutlined/spatial_audio_wght500grad200fill1_20px.svg

<svg xmlns="http://www.w3.org/2000/svg" height="20" width="20"><path d="M20.062 8.208q-1.624 0-3.156-.614-1.531-.615-2.698-1.782-1.166-1.166-1.781-2.687t-.615-3.146h2.521q0 1.125.448 2.177T16.021 4q.812.771 1.864 1.198 1.053.427 2.177.427Zm0-3.75q-.895 0-1.718-.343-.823-.344-1.448-.969t-.979-1.448q-.355-.823-.355-1.719h2.605q0 .354.145.688.146.333.417.604.271.271.625.417.354.145.708.145ZM7.938 10.083q-1.667 0-2.782-1.114-1.114-1.115-1.114-2.781 0-1.667 1.114-2.782 1.115-1.114 2.782-1.114 1.666 0 2.781 1.114 1.114 1.115 1.114 2.782 0 1.666-1.114 2.781-1.115 1.114-2.781 1.114Zm-7.23 7.875v-2.833q0-.813.448-1.51.448-.698 1.136-1.053 1.125-.52 2.573-.906 1.447-.385 3.073-.385 1.624 0 3.072.385 1.448.386 2.573.906.709.334 1.157 1.042.448.708.448 1.521v2.833Z"/></svg>

<svg xmlns="http://www.w3.org/2000/svg" height="20" width="20"><path d="M20.062 8.208Q18.438 8.208 16.906 7.594Q15.375 6.979 14.208 5.812Q13.042 4.646 12.427 3.125Q11.812 1.604 11.812 -0.021H14.333Q14.333 1.104 14.781 2.156Q15.229 3.208 16.021 4Q16.833 4.771 17.885 5.198Q18.938 5.625 20.062 5.625ZM20.062 4.458Q19.167 4.458 18.344 4.115Q17.521 3.771 16.896 3.146Q16.271 2.521 15.917 1.698Q15.562 0.875 15.562 -0.021H18.167Q18.167 0.333 18.312 0.667Q18.458 1 18.729 1.271Q19 1.542 19.354 1.688Q19.708 1.833 20.062 1.833ZM7.938 10.083Q6.271 10.083 5.156 8.969Q4.042 7.854 4.042 6.188Q4.042 4.521 5.156 3.406Q6.271 2.292 7.938 2.292Q9.604 2.292 10.719 3.406Q11.833 4.521 11.833 6.188Q11.833 7.854 10.719 8.969Q9.604 10.083 7.938 10.083ZM0.708 17.958V15.125Q0.708 14.312 1.156 13.615Q1.604 12.917 2.292 12.562Q3.417 12.042 4.865 11.656Q6.312 11.271 7.938 11.271Q9.562 11.271 11.01 11.656Q12.458 12.042 13.583 12.562Q14.292 12.896 14.74 13.604Q15.188 14.312 15.188 15.125V17.958Z"/></svg>
